dist/img/1.svg

<svg width="33" height="63" viewBox="0 0 33 63" fill="none" xmlns="http://www.w3.org/2000/svg">
<path d="M32.128 7.296L19.84 48.768C20.0107 49.1947 20.3093 49.92 20.736 50.944C21.1627 51.8827 21.7173 52.5653 22.4 52.992C21.7173 53.6747 21.4613 54.4853 21.632 55.424C21.888 56.2773 21.9307 57.1307 21.76 57.984C21.504 59.0933 20.736 60.16 19.456 61.184C18.176 62.208 17.408 62.72 17.152 62.72C16.5547 62.72 15.616 62.5067 14.336 62.08C13.056 61.6533 12.0747 61.44 11.392 61.44C10.9653 61.0133 10.496 60.3307 9.984 59.392C9.55733 58.368 9.04533 57.344 8.448 56.32C7.85067 55.2107 7.38133 54.144 7.04 53.12C6.69867 52.0107 6.528 51.1147 6.528 50.432C6.528 48.896 6.82667 46.9333 7.424 44.544C8.10667 42.1547 8.96 39.9787 9.984 38.016C9.984 37.6747 9.856 37.2907 9.6 36.864C9.42933 36.4373 9.472 36.096 9.728 35.84C10.24 34.7307 10.7947 33.4507 11.392 32C11.9893 30.464 12.416 29.1413 12.672 28.032C13.0987 26.496 13.4827 24.9173 13.824 23.296C14.1653 21.6747 14.6347 20.0107 15.232 18.304C15.3173 17.8773 15.36 17.024 15.36 15.744C13.7387 16.8533 12.7573 17.4933 12.416 17.664C12.0747 17.7493 11.5627 18.048 10.88 18.56C10.2827 18.9867 9.6 19.456 8.832 19.968C8.14933 20.48 7.168 20.9493 5.888 21.376L2.816 21.504C2.816 21.1627 2.85867 20.992 2.944 20.992C3.02933 20.992 2.816 20.864 2.304 20.608C2.304 20.1813 2.00533 19.712 1.408 19.2C0.896 18.6027 0.426667 18.0907 0 17.664V15.744C0.938667 15.4027 1.49333 14.6347 1.664 13.44C1.83467 12.16 2.26133 11.0933 2.944 10.24C3.37067 9.64267 3.968 9.216 4.736 8.96C5.504 8.704 6.22933 8.40533 6.912 8.064C7.50933 7.552 7.808 7.08267 7.808 6.656C9.25867 5.54667 11.6053 4.18133 14.848 2.56C18.176 0.853334 21.5467 0 24.96 0C25.3867 0 26.112 0.298667 27.136 0.896C28.16 1.408 28.8853 1.87733 29.312 2.304C29.9093 2.98667 30.4213 3.84 30.848 4.864C31.2747 5.80267 31.7013 6.61333 32.128 7.296Z" fill="#C2E76B"/>
</svg>

<svg width="33" height="63" fill="none" xmlns="http://www.w3.org/2000/svg"><path d="M32.128 7.296L19.84 48.768c.17.427.47 1.152.896 2.176.427.939.981 1.621 1.664 2.048-.683.683-.939 1.493-.768 2.432.256.853.299 1.707.128 2.56-.256 1.11-1.024 2.176-2.304 3.2-1.28 1.024-2.048 1.536-2.304 1.536-.597 0-1.536-.213-2.816-.64-1.28-.427-2.261-.64-2.944-.64-.427-.427-.896-1.11-1.408-2.048a25.782 25.782 0 00-1.536-3.072 20.381 20.381 0 01-1.408-3.2c-.341-1.11-.512-2.005-.512-2.688 0-1.536.299-3.499.896-5.888.683-2.39 1.536-4.565 2.56-6.528 0-.341-.128-.725-.384-1.152-.17-.427-.128-.768.128-1.024.512-1.11 1.067-2.39 1.664-3.84.597-1.536 1.024-2.859 1.28-3.968a76.79 76.79 0 001.152-4.736c.341-1.621.81-3.285 1.408-4.992.085-.427.128-1.28.128-2.56-1.621 1.11-2.603 1.75-2.944 1.92-.341.085-.853.384-1.536.896-.597.427-1.28.896-2.048 1.408-.683.512-1.664.981-2.944 1.408l-3.072.128c0-.341.043-.512.128-.512s-.128-.128-.64-.384c0-.427-.299-.896-.896-1.408A27.522 27.522 0 000 17.664v-1.92c.939-.341 1.493-1.11 1.664-2.304.17-1.28.597-2.347 1.28-3.2.427-.597 1.024-1.024 1.792-1.28a16.589 16.589 0 002.176-.896c.597-.512.896-.981.896-1.408 1.45-1.11 3.797-2.475 7.04-4.096C18.176.853 21.547 0 24.96 0c.427 0 1.152.299 2.176.896 1.024.512 1.75.981 2.176 1.408.597.683 1.11 1.536 1.536 2.56.427.939.853 1.75 1.28 2.432z" fill="#C2E76B"/></svg>
